X:110
T:Father Kelly's
L:1/8
M:4/4
R:Reel
K:G
B2GB AGEG | DGGF GABd | c2AB cBAG | EAAG FDFA |
B2GB AGEG | DGGF GABc | d2Bd gdBd | cDFA G4 :|
|: d2Bd gdBd | d2Bd gdBd | e2ce agfe | defg agfe |
d2Bd gdBd | d2Bd gdBd | cBAc BAGB | ADFA G4 :|

%%newpage
%%scale .7
%%staffsep 35

